X:5792
T:Sauteure Country Dance
O:england
M:6/8
L:1/8
S:Armitt MS
K:A Major
e|cega2c|dfdB2d|cecA2c|B2GE2d|cega2c|dfdB2d|cecB2G|A3A||e|cega2c|dfab2d|
cega3c|f2dB2d|cega3c|dfab2d|dcB ceg|a2AA2||E |EDCA,2C|A2c ecA|BAGE2c|d2e
fdB|EDCA,2C|D2EF2d|cecB2G|A3A


